static/dist/images/icons/emoji-neutral.svg

<svg xmlns="http://www.w3.org/2000/svg" viewBox="0 0 20 20"><path d="M10 .4A9.6 9.6 0 0 0 .4 10a9.6 9.6 0 1 0 19.2-.001C19.6 4.698 15.301.4 10 .4zm0 17.199a7.6 7.6 0 1 1 0-15.2 7.6 7.6 0 0 1 0 15.2zm2.5-11.348c-.828 0-1.5.783-1.5 1.749s.672 1.75 1.5 1.75c.829 0 1.5-.783 1.5-1.75s-.671-1.749-1.5-1.749zM7.501 9.75C8.329 9.75 9 8.967 9 8s-.672-1.75-1.5-1.75S6 7.033 6 8s.672 1.75 1.501 1.75zM13 12.25H7a.75.75 0 0 0 0 1.5h6a.75.75 0 0 0 0-1.5z"/></svg>

<?xml version="1.0" encoding="utf-8"?>
<!-- Generator: Adobe Illustrator 18.1.0, SVG Export Plug-In . SVG Version: 6.00 Build 0)  -->
<!DOCTYPE svg PUBLIC "-//W3C//DTD SVG 1.1//EN" "http://www.w3.org/Graphics/SVG/1.1/DTD/svg11.dtd">
<svg version="1.1" id="Emoji_neutral" xmlns="http://www.w3.org/2000/svg" xmlns:xlink="http://www.w3.org/1999/xlink" x="0px"
	 y="0px" viewBox="0 0 20 20" enable-background="new 0 0 20 20" xml:space="preserve">
<path d="M10,0.4C4.698,0.4,0.4,4.698,0.4,10C0.4,15.302,4.698,19.6,10,19.6c5.301,0,9.6-4.298,9.6-9.601
	C19.6,4.698,15.301,0.4,10,0.4z M10,17.599c-4.197,0-7.6-3.402-7.6-7.6c0-4.197,3.402-7.6,7.6-7.6c4.197,0,7.6,3.402,7.6,7.6
	C17.6,14.197,14.197,17.599,10,17.599z M12.5,6.251C11.672,6.251,11,7.034,11,8s0.672,1.75,1.5,1.75C13.329,9.75,14,8.967,14,8
	S13.329,6.251,12.5,6.251z M7.501,9.75C8.329,9.75,9,8.967,9,8s-0.672-1.75-1.5-1.75c-0.828,0-1.5,0.783-1.5,1.75
	S6.672,9.75,7.501,9.75z M13,12.25h-6c-0.414,0-0.75,0.336-0.75,0.75c0,0.414,0.336,0.75,0.75,0.75h6c0.414,0,0.75-0.336,0.75-0.75
	C13.75,12.585,13.415,12.25,13,12.25z"/>
</svg>
